X: 24
T: No_120_Hinata_Dance_Song_(p).krn
N: Derived from No_120_Hinata_Dance_Song_(p).krn
%%abc-version 2.0
%%abcx-abcm2ps-target-version 5.9.1 (29 Sep 2008)
%%abc-creator hum2abc beta
%%abcx-conversion-date 2019/03/15 08:38:45
%%humdrum-veritas 1613510970
%%humdrum-veritas-data 862422087
%%linebreak <none>
%%barnumbers 0
L: 1/16
M: 2/4
K: F clef=bass
[K:clef=bass][M:2/4]C2CA, CC3 [I:setbarnb 2]| 
(B,2A,2) F,F,3 | 
C3A, B,B,2A, | 
F,4F,2F, z | 
F,4C,C,2F, | 
(3F,2F,2F,2 (B,3A,) | 
F,F,3z4 | 
F,4F,2F, z | 
(F,4C,3)C, :|]  



